icons/git/repo-template.svg

<svg width="32" height="32" viewBox="0 0 32 32" fill="none" xmlns="http://www.w3.org/2000/svg">
<path fill-rule="evenodd" clip-rule="evenodd" d="M6.04197 6.50003C6.28002 5.08118 7.514 4.00005 9.00049 4.00005H9.50033V2.00005H9.00049C6.40782 2.00005 4.27605 3.97337 4.02518 6.50003H6.04197ZM6.00049 9.50003H4.00049V14.5H6.00049V9.50003ZM6.00049 17.5H4.00049V25C4.00049 27.4189 5.71817 29.4367 8.00033 29.9V27.8293C6.83522 27.4174 6.00049 26.3062 6.00049 25C6.00049 23.3432 7.34363 22 9.00049 22H9.50033V20H9.00049C7.87488 20 6.83615 20.372 6.00049 20.9997V17.5ZM12.5003 20V22H17.5003V20H12.5003ZM20.5003 20V22H24.0005V28.0001H19.0003V30.0001H24.0005C25.1051 30.0001 26.0005 29.1046 26.0005 28.0001V17.5H24.0005V20H20.5003ZM24.0005 14.5H26.0005V9.50003H24.0005V14.5ZM24.0005 6.50003H26.0005V4.00005C26.0005 2.89548 25.1051 2.00005 24.0005 2.00005H20.5003V4.00005H24.0005V6.50003ZM17.5003 4.00005V2.00005H12.5003V4.00005H17.5003ZM13.5004 30L17.0004 32V24H10.0004V32L13.5004 30Z" fill="black"/>
</svg>

<svg viewBox="0 0 32 32" xmlns="http://www.w3.org/2000/svg"><path fill-rule="evenodd" d="M6.042 6.5A3 3 0 019 4h.5V2H9a5 5 0 00-4.975 4.5h2.017zM6 9.5H4v5h2v-5zm0 8H4V25a5.002 5.002 0 004 4.9v-2.07A3.001 3.001 0 019 22h.5v-2H9a4.978 4.978 0 00-3 1v-3.5zm6.5 2.5v2h5v-2h-5zm8 0v2H24v6h-5v2h5a2 2 0 002-2V17.5h-2V20h-3.5zm3.5-5.5h2v-5h-2v5zm0-8h2V4a2 2 0 00-2-2h-3.5v2H24v2.5zM17.5 4V2h-5v2h5zm-4 26l3.5 2v-8h-7v8l3.5-2z"/></svg>
